src/assets/sponsors/ea.svg

<?xml version="1.0" encoding="UTF-8"?>
<!-- Generator: Adobe Illustrator 16.0.0, SVG Export Plug-In . SVG Version: 6.00 Build 0)  -->
<!DOCTYPE svg PUBLIC "-//W3C//DTD SVG 1.1//EN" "http://www.w3.org/Graphics/SVG/1.1/DTD/svg11.dtd">
<svg version="1.1" id="Layer_1" xmlns="http://www.w3.org/2000/svg" xmlns:xlink="http://www.w3.org/1999/xlink" x="0px" y="0px" viewBox="0 0 1000 1000" enable-background="new 0 0 1000 1000" xml:space="preserve">

<g>
	<g>
		<path fill-rule="evenodd" clip-rule="evenodd" d="M500.006,1C224.852,1,1,224.855,1,500.014    c0,275.159,223.852,499.011,499.006,499.011c275.156,0,499.007-223.852,499.007-499.011C999.014,224.855,775.162,1,500.006,1z     M500.006,934.393c-239.516,0-434.374-194.862-434.374-434.379c0-239.52,194.858-434.381,434.374-434.381    c239.513,0,434.375,194.862,434.375,434.381C934.381,739.53,739.52,934.393,500.006,934.393z M669.539,354.461h3.938v-19.076    h7.098v-3.368h-18.117v3.368h7.082V354.461z M686.857,337.119h0.072l6.225,17.342h3.207l6.223-17.342h0.088v17.342h3.699v-22.443    h-5.436l-6.016,17.554h-0.104l-6.162-17.554h-5.525v22.443h3.729V337.119z M573.527,331.999H328.041l-37.247,59.858h245.204    L573.527,331.999z M623.695,332.57L473.624,571.533H307.16l38.405-59.909h99.771l38.112-59.88H252.794l-38.104,59.88h54.641    l-75.812,119.611h316.389L626.768,446.94l42.609,64.684h-38.42l-36.385,59.909h113.773l39.506,59.702h72.576L623.695,332.57z"/>
	</g>
</g>
</svg>

<svg id="e8f8e63c-95cb-40db-a0d9-1d7f057093b9" data-name="Layer 1" xmlns="http://www.w3.org/2000/svg" viewBox="0 0 998.01 998.03"><title>ea</title><path d="M500,1C224.85,1,1,224.85,1,500S224.85,999,500,999,999,775.17,999,500,775.16,1,500,1Zm0,933.39C260.49,934.39,65.63,739.53,65.63,500S260.49,65.63,500,65.63,934.38,260.49,934.38,500,739.52,934.39,500,934.39ZM669.54,354.46h3.94V335.39h7.1V332H662.46v3.37h7.08v19.07Zm17.32-17.34h.07l6.22,17.34h3.21l6.22-17.34h.09v17.34h3.7V332h-5.44l-6,17.55h-.1L688.65,332h-5.52v22.44h3.73ZM573.53,332H328l-37.25,59.86H536Zm50.17.57-150.08,239H307.16l38.41-59.91h99.77l38.11-59.88H252.79l-38.1,59.88h54.64L193.52,631.24H509.91l116.86-184.3,42.61,64.68H631l-36.39,59.91H708.35l39.5,59.71h72.58Z" transform="translate(-1 -1)" fill-rule="evenodd"/></svg>
